X:8
T:De Snijdersbank
C:Traditional
D:'t Kliekske, Volksmuziek & dialectzang uit Vlaanderen
Z:Bert Van Vreckem, 2004-05-10 <http://flanders.blackmill.net/music/>
M:4/4
L:1/4
K:C
C>C CE|GG G2|G>A GF|ED C2|
w:1.~Es dadd' ie gi\"en snaa-ders-bank? Ja, dadd' es een snaa-ders-bank!
C>C CE|GG/G/ G2|G>A GF|ED/D/ C||
w:Es dadd' ie gi\"en ket en ne lank? Ja, dadd' es een ket en ne lank!
||:G/G/|GG/G/ GG/G/|GG G :||
w:en een ket en ne lank en een snaa-ders-bank
C|F>F E>E|DD DD|G3
w:Vi-va, vi-va, vi-va de snaa-ders-bank.
C|F>F E>E|DD DD|C2 z2|]
w:Vi-va, vi-va, vi-va de snaa-ders-bank.
W:2. Es dadd' ie gi\"en boerenhou\"es? Ja, dadd'es...
W:Es dadd' ie gi\"en dikke lou\"es? Ja, dadd'es...
W:En een dikke lou\"es een een boerenhou\"es
W:En een ket en ne lank en een snaadersbank
W:Viva, viva, viva de snaadersbank (bis)
W:
W:3. Es dadd' ie gi\"en koekepan? Ja, dadd'es...
W:Es dadd' ie prinses Marian? Ja, dadd'es...
W:En prinses Marian en een koekepan
W:En een dikke lou\"es een een boerenhou\"es
W:En een ket en ne lank en een snaadersbank
W:Viva, viva, viva de snaadersbank (bis)
W:
W:4. Es dadd' ie gi\"en dik halfrond? Ja, dadd'es...
W:En es dadd' ie gi\"en boerekont? Ja, dadd'es...
W:En een boerekont en een dik halfrond
W:(etc...)
W:Viva, viva, viva de snaadersbank (bis)
W:
W:5. Es dadd' ie meni\"er Van Roy? Ja, dadd'es...
W:En es dadd' ie gi\"en dikke vlooi? Ja, dadd'es...
W:En een dikke vlooi en meni\"er Van Roy
W:(etc...)
W:Viva, viva, viva de snaadersbank (bis)
W:
W:6. Es dadd' ie gi\"en krieketout? Ja, dadd'es...
W:En es dadd' ie gi\"en faa\"eferflou\"et? Ja, dadd'es...
W:En een krieketout en een faa\"eferflou\"et
W:(etc...)
W:Viva, viva, viva de snaadersbank (bis)
W:
W:7. Es dadd' ie ne natte vis? Ja, dadd'es...
W:En es dadd'ie ons tante Wis? Ja, dadd'es...
W:En ons tante Wis en ne natte vis
W:(etc...)
W:Viva, viva, viva de snaadersbank (bis)
W:
W:8. Es dadd'ie een wouterkan? Ja, dadd'es...
W:En benne'k ik gi\"ene zotte man? Ja, ge zetj ne zotte man!
W:En ne zotte man en een wouterkan
W:En ons tante Wis en ne natte vis
W:En een krieketout en een faa\"eferflou\"et
W:En een dikke vlooi en meni\"er Van Roy
W:En een boerekont en een dik halfrond
W:En prinses Marian en een koekepan
W:En een dikke lou\"es een een boerenhou\"es
W:En een ket en ne lank en een snaadersbank
W:Viva, viva, viva de snaadersbank (bis)
